X:1018
M:C
L:1/8
Q:1/4=120
K:E Dorian
  [B,2F2B2] (B>A)  B<d`````````e>f|dB  (d/B/).A/.F/ E2          E :|
d| e>f```````ed  (TB/A/).B/.d/ e2 |d>e``dB         (A/F/).A/.B/ d2 |\
   e>f```````e>d   e/d/e/f/    g>e|d>B (d/B/)A/F/   E2          EB |
   e>f```````ed  (TB/A/B/)d/   e2 |d>e``d>B         A/F/A/B/    d>f|\
   g>e```````f>d   e>c`````````d>A|d>B (B/A/)G/F/   E2          E |]

